X:1
T:Title
T:Shining the morning
T:Composer
C:Composer
%%score { 1 | 2 }
L:1/8
Q:1/4=115
M:4/4
K:C
V:1 treble nm="Piano" snm="Pno."
V:2 bass 
V:1
 [cde]2 bc' [cdeg]4 | [Ac]2 fe dBef | [dg]4 [Gc]2 Ac | ef g2 [Gcd]2 B2 | [cde]2 bc' [cdeg]4 | %5
 [Ac]2 fe dBef | [dg]4 [Gc]2 Ac | ef [Bcfg]2 c2 DG |S [Gcde]2 [deb]c' g2 Gc- | cAfe dBef | %10
 g2 Gd c2 Ac | efgA [Gcd]2 BF | z2 [deb]c' g2 Gc- | cAfe dBef | g2 Gd c2 Ac | ef [Bcfg]2 c2 Ec | %16
 g3 c aBda | g2 Gd c2 Ae | f2 A c2 Bcg | f3 e2 [G_Be]fg | [cg]2 a c2 Bda | %21
 [Bg]2 [db]2 [ec']2 [Gce]2 | [cg]2 fc [FAe]2 [FBe]2 | [EGc]G,C[A,F] [G,E]Ccd | g2 a c2 Bda | %25
 [Bg]2 Gd c2 Ae | f2 A c2 Bcg | f3 e2 [G_Be]fg | [Ae]2 a c2 Bda | [Bg]2 [db]2 [ec']2 [Gce]2 | %30
 [cg]2 fc [FAe]2 [FBe]2 | [EGc]G,C[A,F] [G,E]Ccd ||[K:Eb] [Ae]2 g2 f2 de | B3 A GBeb | %34
 [eb]2 c' e2 dec' | b3 _d fgab | [egb]2 c' e2 dfc' | [db]2 [fd']2 [ge']2 [Be]2 | %38
 [ceb]2 ae [Aceg]2 [ABdg]2 | [GBe]3 A GE e2 | b2 c'e c'dfc' | [db]2 Bf e2 cg | a2 c e2 deb | %43
 a3 g2 [B_dg]ab | [eb]2 c' e2 dfc' | [db]2 [fd']2 [ge']2 [Beg]2 | [ceb]2 a c2 d2 e | %47
[K:C] [Acf]3 F2 c2 A | [FABe]4 f4 ||[K:Eb] [Ae]2 g2 f2 de | B3 A GBeb | [eb]2 c' e2 dec' | %52
 b3 _d fgab | [egb]2 c' e2 dfc' | [db]2 [fd']2 [ge']2 [Be]2 | [ceb]2 a c2 d2 e | %56
[K:C] [Acf]3 F2 c2 A | [FGBe]4 [_G_Bc_e]f_g_a ||[K:Db] [Adef]2 [efc']d' a2 Ad- | dBgf ecfg | %60
 a2 Ae d2 Bd | fgaB [Ade]2 cG | z8 | z8 | z8 | z8 | z8 | z8 | z8 | z8 | z8 | z8 | z8 | z8 | z8 | %75
 z8 | z8 | z8 |] %78
V:2
 [CG]4 E4 | [F,C]4 [G,D]4 | [E,B,]4 [A,E]4 | [D,A,C]4 [G,F]2 G2 | [CG]4 E4 | [F,C]4 [G,D]4 | %6
 [E,B,]4 [A,E]4 | [D,A,C]2 [G,D]2 C,G, C2 | C,G, E2 E,C E2 | F,C F2 G,D F2 | E,B, D2 A,E G2 | %11
 D,A, C2 G, D3 | C,G, E2 E,C E2 | F,C F2 G,D F2 | E,B, D2 A,E G2 | [D,C]2 [G,D]2 C,G, C2 | %16
 F,C F2 F,D F2 | E,B, D2 A,E G2 | D,A, C2 G,D F2 | C,G, E2 E,C E2 | F,C F2 F,D F2 | %21
 E,B,DG A, E2 A, | D,A, C2 G,2 D2 | C,3 G,, C,,G,, C,2 | F,C F2 F,D F2 | E,B, D2 A,E G2 | %26
 D,A, C2 G,D F2 | C,G, E2 E,C E2 | F,C F2 F,D F2 | E,B,DE A, E2 A, | D,A, C2 G,2 D2 | %31
 C,3 G,, C,,G,, C,2 ||[K:Eb] F,CEC B,,F, D2 | C,B, E2 C,G, E2 | F,C E2 B,F A2 | E,B, E2 G,_D E2 | %36
 F,CEC B,,F, D2 | G, D2 F C G2 G | F,C F2 B,2 F2 | E,B, E3 E,B,E | A,E A2 A,F A2 | G,D F2 CG B2 | %42
 F,C E2 B,E G2 | A,E G2 G,E G2 | A,E A2 A,F A2 | G,DFB C G2 C | F,C E2 E,2 E2 | %47
[K:C] D,A, C3 A,F,D, | G,,D,G,D, G,D, G,,2 ||[K:Eb] F,CEC B,,F, D2 | E,B, E2 C,G, E2 | %51
 F,C E2 B,F A2 | E,B, E2 G,_D E2 | F,CEC B,,F, D2 | G, C2 F C G2 G | F,C E2 E,2 E2 | %56
[K:C] D,A, C2 CA,F,D, | G,,D,G,D, _A,,_E, C2 ||[K:Db] D,A, F2 F,D F2 | G,D G2 A,E G2 | %60
 F,C E2 B,F A2 | E,B, D2 A, E3 | z8 | z8 | z8 | z8 | z8 | z8 | z8 | z8 | z8 | z8 | z8 | z8 | z8 | %75
 z8 | z8 | z8 |] %78

